!! 00000] TT[WS
!!!OTL: Xiao guafu Shangfen
!!!ARE: Asia, China,ÿShanxi Dingxiang
!! Ethnic Group: Han
!! WI, 206
!!!SCT: J0243
!!!YEM: Copyright 1995, estate of Helmut Schaffrath.
**kern
*ICvox
*Ivox
*M2/4
*k[f#]
*G:
{4dd
8a
8a
=1
4dd
8ee
8gg
=2
4dd
8a
8dd
=3
8dd
4a
8g}
=4
{8e
4g
8a
=5
8a
4dd
8a
=6
4g
8a
8e
=7
2dd}
=8
{8dd
8e
4g
=9
8r
4a
8dd
=10
4dd
8a
8g
=11
8a
4e
8d}
=12
{8g
4g
8a
=13
8a
4dd
8a
=14
8g
8g
8a
8e
=15
2d}
=16
{8g
4g
8b
=17
4a
8e
8d
=18
8g
4g
8a
=19
4dd
8dd
8a
=20
8g
8g
8a
8e
=21
2d}
==
!!!AGN: Xiaodiao. Qingge, Aisu
!!!ONB: ESAC (Essen Associative Code) Database: CHINA
!!!AMT: simple duple
!!!AIN: vox
!!!EED: Helmut Schaffrath
!!!EEV: 1.0
*-
